X:1
T:RVW2/1/96 Good Morning-0
T:RVW2/1/96 Good Morning-0
T:Sung by Mr and Mrs Verrall August 8th 1908 (3 of 4)-0 (See "Abroad As I Was Walking" from V.H.J(?) book)
T:Transcribed by Simon Furey and Lewis Jones
C:Transcribed by Simon Furey and Lewis Jones
L:1/8
Q:1/4=100
M:2/4
K:D
V:1 treble 
V:1
"^(Editorial suggestion)" E2 | A2 A2 | e2 e2 | dc B2 | A3 A | d2 ef | g2 a2 | e3 A | ddea | g2 eg | %10
 fedc | defg | e2 ce | dc B2 | !fermata!A2 |] %15

